src/images/svg/symbols/markets-stocks-and-indices/american-stocks/stocks-wal-mart-stores-inc.svg

<svg width="32" height="32" viewBox="0 0 32 32" fill="none" xmlns="http://www.w3.org/2000/svg">
<path d="M0 16C0 7.16344 7.16344 0 16 0C24.8366 0 32 7.16344 32 16C32 24.8366 24.8366 32 16 32C7.16344 32 0 24.8366 0 16Z" fill="#337DBE"/>
<path d="M16.6145 12.2222C16.43 12.3354 16.213 12.3836 15.998 12.359C15.7828 12.3849 15.5652 12.3372 15.3805 12.2239C15.1957 12.1105 15.0548 11.938 14.9804 11.7345L14.461 5.86048C14.461 5.278 15.1418 4.80078 15.998 4.80078C16.8541 4.80078 17.5349 5.278 17.5349 5.86048L17.0156 11.7345C16.9401 11.9373 16.7989 12.109 16.6145 12.2222Z" fill="#FDB71B"/>
<path d="M13.0128 13.595C13.0192 13.8122 12.9507 14.025 12.8188 14.1977L12.8329 14.1907C12.7479 14.3896 12.5988 14.5544 12.4092 14.6587C12.2197 14.763 12.0007 14.8008 11.7872 14.7662L6.42555 12.2748C5.92026 11.9801 5.8571 11.1169 6.27818 10.4151C6.69925 9.7133 7.45718 9.32732 7.95545 9.61505L12.7838 13.0047C12.9255 13.1694 13.0064 13.3778 13.0128 13.595Z" fill="#FDB71B"/>
<path d="M19.177 14.1907C19.2612 14.3899 19.4104 14.5546 19.6004 14.6579C19.7904 14.7612 20.0098 14.7969 20.2227 14.7592L25.5703 12.2748C26.0756 11.9801 26.1458 11.159 25.7247 10.4151C25.3036 9.67119 24.5387 9.32731 24.0404 9.61505L19.2121 13.0047C19.0754 13.1734 19.0007 13.384 19.0007 13.6012C19.0007 13.8184 19.0754 14.029 19.2121 14.1977L19.177 14.1907Z" fill="#FDB71B"/>
<path d="M16.6145 19.8366C16.43 19.7234 16.213 19.6752 15.998 19.6997C15.7828 19.6739 15.5652 19.7216 15.3805 19.8349C15.1957 19.9483 15.0548 20.1208 14.9804 20.3243L14.461 26.1983C14.461 26.7808 15.1628 27.258 15.998 27.258C16.8331 27.258 17.5349 26.7808 17.5349 26.1983L17.0156 20.3243C16.9401 20.1215 16.7989 19.9498 16.6145 19.8366Z" fill="#FDB71B"/>
<path d="M19.1771 17.8681C19.2606 17.6716 19.4077 17.5088 19.5947 17.4057C19.7817 17.3027 19.9979 17.2653 20.2087 17.2996L25.5563 19.784C26.0616 20.0787 26.1318 20.9068 25.7107 21.6437C25.2896 22.3806 24.5247 22.7315 24.0264 22.4437L19.1981 19.0611C19.062 18.8907 18.9879 18.6792 18.9879 18.4611C18.9879 18.243 19.062 18.0315 19.1981 17.8611L19.1771 17.8681Z" fill="#FDB71B"/>
<path d="M13.0116 18.4673C13.018 18.2492 12.95 18.0355 12.8188 17.8611L12.8329 17.8681C12.7488 17.669 12.5995 17.5042 12.4095 17.401C12.2195 17.2977 12.0001 17.262 11.7872 17.2997L6.42555 19.784C5.92026 20.0788 5.8571 20.9069 6.27818 21.6438C6.69925 22.3806 7.45718 22.7315 7.95545 22.4438L12.7838 19.0612C12.9249 18.8948 13.0053 18.6854 13.0116 18.4673Z" fill="#FDB71B"/>
</svg>

<svg width="32" height="32" fill="none" xmlns="http://www.w3.org/2000/svg"><path d="M0 16C0 7.163 7.163 0 16 0s16 7.163 16 16-7.163 16-16 16S0 24.837 0 16Z" fill="#337DBE"/><path d="M16.614 12.222a.968.968 0 0 1-.616.137.961.961 0 0 1-1.018-.624l-.519-5.875c0-.582.68-1.06 1.537-1.06.856 0 1.537.478 1.537 1.06l-.52 5.875a.969.969 0 0 1-.4.487ZM13.013 13.595a.947.947 0 0 1-.194.603l.014-.007a.968.968 0 0 1-1.046.575l-5.361-2.491c-.506-.295-.569-1.158-.148-1.86.421-.702 1.18-1.088 1.677-.8l4.829 3.39a.948.948 0 0 1 .229.59ZM19.177 14.19a.955.955 0 0 0 1.046.57l5.347-2.485c.506-.295.576-1.116.155-1.86-.421-.744-1.186-1.088-1.685-.8l-4.828 3.39a.948.948 0 0 0 0 1.193l-.035-.007ZM16.614 19.837a.969.969 0 0 0-.616-.137.962.962 0 0 0-1.018.624l-.519 5.874c0 .583.702 1.06 1.537 1.06s1.537-.477 1.537-1.06l-.52-5.874a.969.969 0 0 0-.4-.487ZM19.177 17.868a.954.954 0 0 1 1.032-.568l5.347 2.484c.506.295.576 1.123.155 1.86-.421.737-1.186 1.088-1.685.8l-4.828-3.383a.961.961 0 0 1 0-1.2l-.02.007ZM13.012 18.467a.961.961 0 0 0-.193-.606l.014.007a.954.954 0 0 0-1.046-.568l-5.361 2.484c-.506.295-.569 1.123-.148 1.86.421.737 1.18 1.088 1.677.8l4.829-3.383a.961.961 0 0 0 .228-.594Z" fill="#FDB71B"/></svg>
